BadApple: d=8,o=5,b=138: 8d#, 8f, 8f#, 8g#, 4a#, 8d#6, 8c#6, 4a#, 4d#, 8a#, 8g#, 8f#, 8f, 8d#, 8f, 8f#, 8g#, 4a#, 8g#, 8f#, 8f, 8d#, 8f, 8f#, 8f, 8d#, 8d, 8f, 8d#, 8f, 8f#, 8g#, 4a#, 8d#6, 8c#6, 4a#, 4d#, 8a#, 8g#, 8f#, 8f, 8d#, 8f, 8f#, 8g#, 4a#, 8g#, 8f#, 4f, 4f#, 4g#, 4a#
